icon-themes/sifr_svg/cmd/lc_nexttrackedchange.svg

<svg viewBox="0 0 24 24" xmlns="http://www.w3.org/2000/svg"><g fill="#555753"><path d="m3 2v21h17v-11.025391c-.184955.146237-.386028.315773-.548828.431641-.379439.379227-.932429.59375-1.451172.59375v8h-13v-17h8v1h4l-3-3zm14 0v1c0 .25689.12983.5276787.3125.6992188l2.587891 2.3007812h-6.900391v2h6.900391l-2.587891 2.300781c-.18267.17155-.3125.442415-.3125.699219v1h.400391.599609c.3 0 .55232-.100781.75-.300781 1.024166-.7 3.25-2.799219 4.25-3.699219v-2l-4.25-3.6992188c-.19768-.1999999-.45-.3007812-.75-.3007812h-.599609zm-11 4v2h4v-2zm0 4v2h4v-2zm6 0v2h4v-2zm-6 4v2h2v-2zm8 4v2h2v-2z"/><path d="m10 14v2h6v-2zm-4 4v2h6v-2z" opacity=".35"/></g></svg>

<svg xmlns="http://www.w3.org/2000/svg" viewBox="0 0 24 24">
  <path
     style="fill:#555753"
     d="M 3 2 L 3 23 L 20 23 L 20 11.974609 C 19.815045 12.120846 19.613972 12.290382 19.451172 12.40625 C 19.071733 12.785477 18.518743 13 18 13 L 18 21 L 5 21 L 5 4 L 13 4 L 13 5 L 17 5 L 14 2 L 3 2 z M 17 2 L 17 3 C 17 3.25689 17.12983 3.5276787 17.3125 3.6992188 L 19.900391 6 L 13 6 L 13 8 L 19.900391 8 L 17.3125 10.300781 C 17.12983 10.472331 17 10.743196 17 11 L 17 12 L 17.400391 12 L 18 12 C 18.3 12 18.55232 11.899219 18.75 11.699219 C 19.774166 10.999219 22 8.9 23 8 L 23 6 L 18.75 2.3007812 C 18.55232 2.1007813 18.3 2 18 2 L 17.400391 2 L 17 2 z M 6 6 L 6 8 L 10 8 L 10 6 L 6 6 z M 6 10 L 6 12 L 10 12 L 10 10 L 6 10 z M 12 10 L 12 12 L 16 12 L 16 10 L 12 10 z M 6 14 L 6 16 L 8 16 L 8 14 L 6 14 z M 14 18 L 14 20 L 16 20 L 16 18 L 14 18 z "
     />
  <path
     style="opacity:0.35;fill:#555753"
     d="M 10 14 L 10 16 L 16 16 L 16 14 L 10 14 z M 6 18 L 6 20 L 12 20 L 12 18 L 6 18 z "
     />
</svg>
